source/img/leaf.svg

<svg width="26" height="28" viewBox="0 0 26 28" fill="none" xmlns="http://www.w3.org/2000/svg">
<path d="M25.3438 0.767C25.2434 0.317 24.8647 0 24.4325 0C24.4306 0 24.4288 0 24.4269 0C19.4891 0.033 7.48156 0.916 2.63375 8.38C0.115624 12.258 -0.100938 17.293 1.98969 23.345C2.00562 23.392 2.03844 23.424 2.06 23.467C1.31281 25.44 1.02312 26.753 1.01562 26.79C0.906875 27.33 1.23031 27.862 1.73656 27.978C1.80219 27.993 1.86781 28 1.93344 28C2.36562 28 2.75469 27.679 2.84937 27.21C2.86906 27.108 5.25781 16.837 13.7028 10.832C14.1341 10.526 14.2503 9.905 13.9625 9.445C13.6747 8.985 13.0934 8.86 12.6622 9.168C7.87344 12.573 4.92406 17.176 3.18969 20.824C1.94844 16.246 2.27375 12.447 4.17594 9.519C7.91937 3.755 16.7984 2.365 22.1581 2.071C21.005 3.872 19.745 7.174 19.745 13C19.745 16.12 18.9153 18.522 17.2803 20.14C14.6591 22.731 10.4009 22.974 7.28656 22.724C6.76906 22.679 6.32 23.095 6.28062 23.646C6.24125 24.196 6.62844 24.676 7.14406 24.718C7.7675 24.769 8.43313 24.8 9.125 24.8C12.2956 24.8 15.9941 24.137 18.5544 21.606C20.5888 19.595 21.62 16.7 21.62 13.001C21.62 3.902 24.8356 1.905 24.8516 1.896C25.2416 1.687 25.4459 1.219 25.3438 0.767Z" fill="white"/>
</svg>

<svg width="26" height="28" fill="none" xmlns="http://www.w3.org/2000/svg"><path d="M25.34.77a.95.95 0 0 0-.9-.77h-.01C19.49.03 7.48.92 2.63 8.38.12 12.26-.1 17.29 2 23.34l.07.13a25.93 25.93 0 0 0-1.04 3.32c-.11.54.21 1.07.72 1.19l.2.02c.43 0 .81-.32.9-.79.03-.1 2.42-10.37 10.86-16.38.43-.3.55-.93.26-1.38a.9.9 0 0 0-1.3-.28c-4.79 3.4-7.74 8-9.47 11.65-1.24-4.57-.92-8.37.99-11.3C7.92 3.76 16.8 2.37 22.16 2.07 21 3.87 19.75 7.17 19.75 13c0 3.12-.83 5.52-2.47 7.14-2.62 2.6-6.88 2.83-10 2.58-.51-.04-.96.38-1 .93-.04.55.35 1.03.86 1.07.63.05 1.3.08 1.99.08 3.17 0 6.86-.66 9.42-3.2 2.04-2 3.07-4.9 3.07-8.6 0-9.1 3.22-11.1 3.23-11.1.4-.21.6-.68.5-1.13Z" fill="#fff"/></svg>
